X: 1
T:Last Night's Fun
R:reel
D:Noel Hill: The Irish Concertina
D:Mary Bergin: Feadoga Stain
D:Dervish: Playing with Fire
Z:id:hn-reel-379
M:C|
K:D
ADFD ~A3B|ADFD EFGB|ADFD A2 (3Bcd|1 e2fe dBBd:|2 e2fe dBAB||
df~f2 af~f2|defd ~e3f|1 df~f2 af~f2|egfe dBAB:|2 ~a3b afeg|fedc BcdB||
